!!!COM: Scarlatti, Domenico
!!!CDT: 1685-1757
!!!OTL: Sonata in A minor, L.64, K.148
!!!SCT: K. 148
!!!SCT: L. 064
!!!OMD: Andante ([quarter-dot]=54)
**kern	**kern	**dynam
*staff2	*staff1	*staff1/2
*Icemba	*Icemba	*
*I"L.64 (K.148)	*I"L.64 (K.148)	*
*>[A,A,B,B]	*>[A,A,B,B]	*>[A,A,B,B]
*>norep[A,B]	*>norep[A,B]	*>norep[A,B]
*>A	*>A	*>A
*clefF4	*clefG2	*
*k[]	*k[]	*
*a:	*a:	*
*M3/8	*M3/8	*
*MM81	*MM81	*
=1-	=1-	=1-
!	!	!LO:DY:rj
(8AL	4.ee	mf
8B	.	.
8cJ	.	.
=2	=2	=2
4d)	(8ffL	.
.	8dd	.
(8d	8bJ	.
=3	=3	=3
4c)	8eeL	.
.	8cc	.
(8c	8aJ	.
=4	=4	=4
8G#L	8.bL	.
8E	.	.
.	32ccLL	.
.	32ddJJ	.
8AJ)	8ccJ)	.
=5	=5	=5
(8cLMM	4r	p
8B	.	.
8AJ	8ee	.
=6	=6	=6
8G#L	(8.bL	.
8E	.	.
.	32ccLL	.
.	32ddJJ	.
8AJ)	8ccJ)	.
=7	=7	=7
(8cLMM	4r	.
8B	.	.
8AJ	8ee'	.
=8	=8	=8
!	!LO:TX:c:i:t=poco rit.	!
8G#L	(8.bL	.
8E	.	.
.	32ccLL	.
.	32ddJJ	.
8AJ)	8ccJ)	.
!!LO:LB:g=z
=9	=9	=9
!	!	!LO:DY:rj
(4F	8r	mf
!	!LO:TX:c:i:t=a tempo	!
.	(8aaL	>
8d	8ffJ)	]]
=10	=10	=10
4E	8r	.
.	(8ggL	>
8c	8eeJ)	]]
=11	=11	=11
4D	8r	.
.	(8ffL	>
8B	8ddJ)	]]
=12	=12	=12
8CL)	8r	.
(8c	(8eeL	.
8dJ	8ffJ	.
=13	=13	=13
4e)	8ggL	.
.	8ee)	.
(8e	8cc'J	.
=14	=14	=14
8BL	(8.ddL	.
8G	.	.
.	32eeLL	.
.	32ffJJ	]
8cJ)	8eeJ)	p
=15	=15	=15
(8eLmm	4r	.
8d	.	.
8cJ	8gg'	.
=16	=16	=16
8BL	(8.ddL	.
8G	.	.
.	32eeLL	.
.	32ffJJ	.
8cJ)	8eeJ)	.
=17	=17	=17
8C 8cL	8r	.
8C 8c	(8cccL	.
8C 8cJ	8eeJ)	.
!!LO:LB:g=z
=18	=18	=18
8D 8cL	4.ff#mm	mf
*ped	*	*
8D 8c	.	.
8D 8cJ	.	.
=19	=19	=19
*Xped	*	*
8D 8BL	4.ggMM	p
*ped	*	*
8D 8B	.	.
8D 8BJ	.	.
=20	=20	=20
*Xped	*	*
8D 8c#L	4.gg 4.aamm	mf
*ped	*	*
8D 8c#	.	.
8D 8c#J	.	.
=21	=21	=21
*Xped	*	*
8D 8dL	4.ff 4.aamm	p
*ped	*	*
8D 8d	.	.
8D 8dJ	.	.
=22	=22	=22
*Xped	*	*
8E 8dL	4.ee 4.gg#mm	<
*ped	*	*
8E 8d	.	.
8E 8dJ	.	.
=23	=23	=23
*Xped	*	*
8E 8cL	4.cc 4.ee 4.aaMM	.
*ped	*	*
8E 8c	.	.
8E 8cJ	.	.
=24	=24	=24
*Xped	*	*
8E 8d#L	4.b 4.ff# (4.aaMM	f
*ped	*	*
8E 8d#	.	.
(8E 8d#J	.	>
=25	=25	=25
*Xped	*	*
8E 8eL)	8ggL)	.
(8F#	(8aa	] mf
8GJ	8bbJ	.
=26	=26	=26
4A	8ff#L	.
.	8gg	.
8B	8aaJ	.
!!LO:LB:g=z
=27	=27	=27
4c)	8dd#L)	.
.	(16eeL	.
.	16ff#	.
(8c	16gg	.
.	16aaJJ)	.
=28	=28	=28
.	(8aaqq	>
4B)	4.bb)	.
(8a	.	]
=29	=29	=29
8gLMM	4r	.
8f#	.	.
8eJ	8bb'	.
=30	=30	=30
8d#L	(8.ff#L	.
8B	.	.
.	32ggLL	.
.	32aaJJ	.
8eJ)	8ggJ)	.
=31	=31	=31
(8gLMM	4r	p
8f#	.	.
8eJ	8bb'	.
=32	=32	=32
8d#L	(8.ff#L	.
8B	.	.
.	32ggLL	.
.	32aaJJ	.
8eJ)	[8ggJ)	.
=33	=33	=33
(4.A#	8ggL]	f
.	(8ff#	.
.	8eeJ	.
=34	=34	=34
4An	8cccL	.
.	8dd#	.
8G)	8eeJ)	.
=35	=35	=35
(8AL	(24aaLL	.
.	24gg	.
.	24ff#J	.
8B'	8ee' 8gg'	.
8BB'J)	8dd#' 8ff#'J)	.
!!LO:LB:g=z
=36	=36	=36
8r	4.ee	.
(8EL	.	mf
8AJ	.	.
=37	=37	=37
8GLMM	4r	.
8F#	.	.
8EJ	8b'/	.
=38	=38	=38
8D#L	(8.f#L	.
8BB	.	.
.	32gLL	.
.	32aJJ	.
8D#J)	8gJ)	.
=39	=39	=39
(8GLMM	4r	p
8F#	.	.
8EJ	8b'/	.
=40	=40	=40
8D#L	(8.f#L	.
8BB	.	.
.	32gLL	.
.	32aJJ	.
8EJ)	[8gJ)	.
=41	=41	=41
(4.AA#	8gL]	f
.	(8f#	.
.	8eJ	.
=42	=42	=42
4AAn	8ccL	.
.	8d#	.
8GG)	8eJ)	.
=43	=43	=43
*	*Xtuplet	*
8AA'	(24aLL	.
.	24g	.
.	24f#J	.
(<4BB	8e' 8g'	.
.	8d#') 8f#'J	.
=44	=44	=44
*	*^	*
4C	(8eL	4e	.
.	8ee)	.	.
8D/	([8ffnJ	(8a	.
!!LO:LB:g=z
=45	=45	=45	=45
4.E)	8ffL]	4.g#)	.
.	8ee	.	.
.	8ddJ)	.	.
*	*v	*v	*
=46	=46	=46
.	(16ddqq	.
(8AAL	(4cc)M	.
8A	.	.
8GJ	8b)	.
=47	=47	=47
8AL	(24aLL	.
.	24g	.
.	24f#J	.
8B'	8e' 8g'	.
8BB'J)	8d#' 8f#'J)	.
=48	=48	=48
*	*^	*
(4C\	(8eL	4e	>
.	8ee)	.	.
8D	([8ffnJ	8a	] p
=49	=49	=49	=49
4.E)	8ffL]	4.g#	.
.	8ee	.	.
.	8ddJ)	.	.
*	*v	*v	*
=50	=50	=50
.	(16ddqq	.
(8AAL	(4cc)M	.
8A	.	.
8GJ	8b)	.
=51	=51	=51
8AL	24aLL	mf
.	24g	.
.	24f#J	.
8B'	8e' 8g'	.
8BB'J	8d#' 8f#'J	.
=52	=52	=52
4E)	4e	.
8r	8r	.
!!LO:LB:g=z
=53:|!|:	=53:|!|:	=53:|!|:
*>B	*>B	*>B
8r	4.ee	p
(8eL	.	.
8dJ	.	.
=54	=54	=54
8c#L	4.ee	<
8e	.	.
8B-J	.	.
=55	=55	=55
8AL	([4.ee	.
8e	.	.
8GJ	.	.
=56	=56	=56
4F 4A)	8eeL]	f
.	8aa	.
8E ((8c#	8ggJ	.
=57	=57	=57
4.D 4.d))	8ffLMM	.
.	8ee	>
.	8ddJ)	]]
=58	=58	=58
8r	4.dd	p
(8dL	.	.
8cJ	.	.
=59	=59	=59
8BL	4.dd	<
8d	.	.
8AJ	.	.
=60	=60	=60
8GL	([4.dd	.
8d	.	.
8FJ	.	.
=61	=61	=61
4E 4G)	8ddL]	f
.	8gg	.
8D (8B	8ffJ	.
!!LO:LB:g=z
=62	=62	=62
4.C 4.c)	8eeLmm	.
.	8dd	>
.	8ccJ)	]]
=63	=63	=63
4E	(8ggL	p
.	8ee	.
8E	8cc#J)	.
=64	=64	=64
.	(16cc#qq	.
8r	4.dd)	<
(8DL	.	.
8EJ	.	[[
=65	=65	=65
4F#)	8r	>
.	(8aaL	.
(8F#	8ccJ)	]]
=66	=66	=66
4G)	8r	.
.	(8ggL	p
(8G	8bJ)	.
=67	=67	=67
4C)	8r	.
.	(8eeL	.
(8C	[8gJ	>
=68	=68	=68
4D/)	8gL]	.
.	16f#L	.
.	16eJ	]
8r	8d'J)	mf
=69	=69	=69
(8BLmm	4r	.
8A	.	.
8GJ	8dd'	.
=70	=70	=70
8F#L	(8.aL	.
8D	.	.
.	32bLL	.
.	32ccJJ	.
8GJ)	8bJ)	.
!!LO:LB:g=z
=71	=71	=71
(8BLmm	4r	.
8A	.	.
8GJ	8dd'	p
=72	=72	=72
8F#L	(8.aL	.
8D	.	.
.	32bLL	.
.	32ccJJ	.
8GJ)	8bJ)	.
=73	=73	=73
*ped	*	*
(8G' 8fn'L	4.b (4.bb	p
8G' 8f'	.	<
8G' 8f'J)	.	.
=74	=74	=74
*ped	*	*
(8G' 8e'L	4.cc 4.ccc	.
8G' 8e'	.	.
8G' 8e'J)	.	.
=75	=75	=75
*ped	*	*
(8A' 8g'L	4.cc# 4.ccc#	.
8A' 8g'	.	.
8A' 8g'J)	.	.
=76	=76	=76
*ped	*	*
8A' (8f#'L	4.dd 4.ddd)	mf
8A' 8f#'	.	.
8A' 8f#'J)	.	.
=77	=77	=77
*ped	*	*
(8B' 8g'L	4.dd# (4.aa	.
8B' 8g'	.	.
8B' 8g'J)	.	.
=78	=78	=78
*ped	*	*
(8B' 8g'L	4.ddn 4.bb	<
8B' 8g')	.	.
((8B 8gJ	.	[
=79	=79	=79
*Xped	*	*
8A 8aL))	8cc 8cccL)	mf
8G 8g	(8bb	.
8F 8fJ	[8aaJ	.
!!LO:LB:g=z
=80	=80	=80
4.E 4.e	8aaL]	.
.	16gg#Lm	>
.	16ff#J	.
.	8ee'J)	]]
=81	=81	=81
(8cLMM	4r	mf
8B	.	.
8AJ	8ee'	.
=82	=82	=82
8G#L	(8.bL	.
8E	.	.
.	32ccLL	.
.	32ddJJ	.
8AJ)	8ccJ)	.
=83	=83	=83
(8cLMM	4r	p
8B	.	.
8AJ	(8ee'	.
=84	=84	=84
8G#L	8.bL	.
8E	.	.
.	32ccLL	.
.	32ddJJ	.
8AJ)	[8ccJ)	.
=85	=85	=85
(4.D#	8ccL]	f
.	(8b	.
.	8aJ	.
=86	=86	=86
4Dn/	8ffL	.
.	8g#	.
8C)	8aJ)	.
=87	=87	=87
(<8DL	(24ddLL	.
.	24cc	.
.	24bJ	.
8E'	8a' 8cc'	.
8EE'J	8g#' 8b'J	.
!!LO:LB:g=z
=88	=88	=88
8AAL)	4.a)	.
(8A	.	p <
8BJ	.	[[
=89	=89	=89
8cLMM	4r	.
8B	.	.
!	!	!LO:DY:rj
8AJ	8ee'	mf
=90	=90	=90
8G#L	(8.bL	.
8E	.	.
.	32ccLL	.
.	32ddJJ	.
8AJ)	8ccJ)	.
=91	=91	=91
(8cLMM	4r	p
8B	.	.
8AJ	8ee'	.
=92	=92	=92
8G#L	(8.bL	.
8E	.	.
.	32ccLL	.
.	32ddJJ	.
8AJ)	[8ccJ)	.
=93	=93	=93
(4.D#	8ccL]	f
.	(8b	.
.	8aJ	.
=94	=94	=94
4Dn/	8ffL	.
.	8g#	.
8C)	8aJ)	.
=95	=95	=95
(8DL	(24ddLL	.
.	24cc	.
.	24bJ	.
8E'	8a' 8cc'	.
8EE'J)	8g#' 8b'J)	.
!!LO:LB:g=z
=96	=96	=96
*	*^	*
(4F	(8aL	4a	.
.	8aa)	.	.
8G	[8bb-J	(8dd	.
=97	=97	=97	=97
4.A)	8bb-XL]	4.cc#)	.
.	8aa	.	.
.	8ggJ	.	.
*	*v	*v	*
=98	=98	=98
.	(16ggqq	.
(8DL	(4ff)M	.
8d	.	.
8cJ	8ee)	.
=99	=99	=99
8dL	(24ddLL	.
.	24cc	.
.	24bJ	.
8e'	8a' 8cc'	.
8E'J)	8g#' 8b'J)	.
=100	=100	=100
*	*^	*
(4F	(8aL	4a	.
.	8aa)	.	.
8G	([8bb-J	(8dd	p
=101	=101	=101	=101
4A	8bb-XL]	4.cc#)	.
.	8aa	.	.
8AA)	8ggJ	.	.
*	*v	*v	*
=102	=102	=102
.	(16ggqq)	.
(8DDL	(4ffM)	<
8D	.	.
8CJ	8ee)	[[
=103	=103	=103
8DL	(24ddLL	f
.	24cc	.
.	24bJ	.
8E'	8a' 8cc'	.
8EE'J	8g#' 8b'J	.
=104	=104	=104
4.AA)	4.a)	.
==:|!	==:|!	==:|!
*-	*-	*-
!!!RDF**kern: > = above
!!!RDF**kern: < = below
!!!verovio: beamFrenchStyle 1
!!!URL-vhv: https://verovio.humdrum.org/?file=scarlatti/sonatas/L064K148.krn
!!!URL-pdf: https://github.com/craigsapp/scarlatti-keyboard-sonatas/blob/master/reference-edition/L064K148.pdf
!!!URL-youtube: https://www.youtube.com/watch?v=v8KtFTG9Mts Gottlieb Wallisch, piano
!!!PTL: Domenico Scarlatti: Opere complete per clavicembalo
!!!PED: Longo, Alessandro
!!!PPR: Ricordi
!!!PPP: Milan
!!!PDT: 1906-1913
!!!YEC: 2021 Craig Stuart Sapp
!!!YEM: Licence: (CC BY-NC-SA 4.0) https://creativecommons.org/licenses/by-nc-sa/4.0
!!!ENC: Craig Stuart Sapp
!!!END: 2008/04/22
!!!EED: Craig Stuart Sapp
!!!EEV: 2021/06/13
